X: 590
T: Nao wugeng
L: 1/8
M: 2/4
K: Bb
g2g b [I:setbarnb 1]| 
g f e c | 
f2g2 | 
c' f' e' f' | 
e' c' b c' | 
g2g b | 
g f e c | 
f2g b | 
f2g2 | 
c'2e' c' | 
b3c' | 
f'3e' | 
c'2c'2 | 
g2g b | 
g f e c | 
f f g b | 
f2g2 | 
b gf2 | 
g2z2 | 
c'4 | 
f'c'2b | 
g2b2 | 
g2f2 | 
ff2g | 
d c B B | 
c3f | 
c4 |]

@@@ Tune index: 9464
